X:1
T:The Broom of the Cowdenknows
M:4/4
L:1/8
K:C
 G3 A c3 d| c3/2- A/2 G3/2- A/2 F2f-c| d2 f3/2- g/2 f3/2- g/2- ac|\
 d4 z2 f2| c3/2- d/2 f3/2- g/2f/2-g/2 ag-d|f-e-d c_B-AG-F| _B2- cdc/2-d/2 fc-A|\
 G8|
